packages/icons/src/svg/sliders.svg

<svg xmlns="http://www.w3.org/2000/svg" viewBox="0 0 16 16">
	<path d="M1 0h2v7H1zm0 13h2v3H1zM13 0h2v6h-2zm0 12h2v4h-2zM7 9h2v7H7zm0-9h2v3H7zm1 4a2 2 0 1 1-2 2 2 2 0 0 1 2-2zm6 3a2 2 0 1 1-2 2 2 2 0 0 1 2-2zM2 8a2 2 0 1 1-2 2 2 2 0 0 1 2-2z"/>
</svg>

<svg xmlns="http://www.w3.org/2000/svg" viewBox="0 0 16 16">
  <path d="M1,0H3V7H1ZM1,13H3v3H1ZM13,0h2V6H13Zm0,12h2v4H13ZM7,9H9v7H7ZM7,0H9V3H7ZM8,4A2,2,0,1,1,6,6,2,2,0,0,1,8,4Zm6,3a2,2,0,1,1-2,2A2,2,0,0,1,14,7ZM2,8a2,2,0,1,1-2,2A2,2,0,0,1,2,8Z"/>
</svg>
